!!!COA:	Josquin des Prez
!!!CDT:	~1450-1521/08/27
!!!OTL:	Regina celi letare
!!!AGN:	Motet
!!!SCT:	NJE 99.3
!!!SCA:	New Josquin Edition 99.3
!!!voices:	6
**kern	**kern	**kern	**kern	**kern	**kern
*staff6	*staff5	*staff4	*staff3	*staff2	*staff1
*Ivox	*Ivox	*Ivox	*Ivox	*Ivox	*Ivox
*I"Bassus	*I"Baritonans	*I"Tenor2	*I"Tenor1	*I"Altus	*I"Superius
*I'B	*I'Bt	*I'T2	*I'T1	*I'A	*I'S
*>[A,B]	*>[A,B]	*>[A,B]	*>[A,B]	*>[A,B]	*>[A,B]
*>A	*>A	*>A	*>A	*>A	*>A
*clefF4	*clefF4	*clefGv2	*clefGv2	*clefGv2	*clefG2
*k[b-]	*k[b-]	*k[b-]	*k[b-]	*k[b-]	*k[b-]
*M2/1	*M2/1	*M2/1	*M2/1	*M2/1	*M2/1
*met(C|)	*met(C|)	*met(C|)	*met(C|)	*met(C|)	*met(C|)
!!incipit: 6
=1-	=1-	=1-	=1-	=1-	=1-
!	!LO:TX:Z=15:t=[Baritonans-->T1 canon at the upper fourth]	!	!	!	!
0r	0r	0F	0r	0r	0r
=2	=2	=2	=2	=2	=2
0r	0r	1B-	0r	0r	0f
.	.	1A	.	.	.
=3	=3	=3	=3	=3	=3
0r	0r	1G	0r	0r	1g
.	.	[1B-	.	.	1f
=4	=4	=4	=4	=4	=4
0r	0r	2B-\]	0r	0r	0g
.	.	2A/	.	.	.
.	.	1G	.	.	.
=5	=5	=5	=5	=5	=5
0FF	0r	0F	0r	0r	0a
=6	=6	=6	=6	=6	=6
1BB-	0r	0r	0r	0F	0r
1AA	.	.	.	.	.
=7	=7	=7	=7	=7	=7
1GG	0r	0r	0r	1G	0r
[1BB-	.	.	.	1F	.
=8	=8	=8	=8	=8	=8
2BB-/]	0r	0r	0r	0G	0r
2AA/	.	.	.	.	.
1GG	.	.	.	.	.
=9	=9	=9	=9	=9	=9
0FF	0r	0C	0r	0A	0r
=10	=10	=10	=10	=10	=10
0r	0r	1F	0r	0r	0c
.	.	1E	.	.	.
=11	=11	=11	=11	=11	=11
0r	0r	1D	0r	1B-	1d
.	.	[1F	.	2.A/	1c
.	.	.	.	4G/	.
=12	=12	=12	=12	=12	=12
0r	0r	2F/]	0r	4A/	0d
.	.	.	.	4B-\	.
.	.	2E/	.	1c	.
.	.	1D	.	.	.
.	.	.	.	2Bni\	.
=13	=13	=13	=13	=13	=13
0r	[0C	1C	0r	[0c	0e
.	.	1G	.	.	.
=14	=14	=14	=14	=14	=14
0FF	0C]	2A/	0r	0c]	1.f
.	.	4F/	.	.	.
.	.	4G/	.	.	.
.	.	4A/	.	.	.
.	.	4B-\	.	.	.
.	.	4c\	.	.	2e/
.	.	4A/	.	.	.
=15	=15	=15	=15	=15	=15
1BB-	0D	1B-	[0F	1r	1.d
1BB-	.	2.F/	.	1B-	.
.	.	.	.	.	2e/
.	.	4G/	.	.	.
=16	=16	=16	=16	=16	=16
0AA	0C	2A/	0F]	1c	2f/
.	.	2B-\	.	.	2g/
.	.	1c	.	1A	1a
=17	=17	=17	=17	=17	=17
1GG	[0D	1B-	0G	2r	1r
.	.	.	.	2.B-\	.
1GG	.	1G	.	.	1b-
.	.	.	.	4c\	.
.	.	.	.	[2d\	.
=18	=18	=18	=18	=18	=18
0D	0D]	1r	0F	4d\]	2.a/
.	.	.	.	4c\	.
.	.	.	.	1c	.
.	.	.	.	.	4g/
.	.	1D	.	.	1f
.	.	.	.	2Bni\	.
=19	=19	=19	=19	=19	=19
0C	[0E	2.G/	[0G	2.c\	1r
.	.	4F/	.	4d\	.
.	.	2.E/	.	4e\	[1cc
.	.	.	.	4f\	.
.	.	.	.	[2g\	.
.	.	4D/	.	.	.
=20	=20	=20	=20	=20	=20
1r	0E]	[0C	0G]	4g\]	2cc\]
.	.	.	.	4f\	.
.	.	.	.	4e\	4b-\
.	.	.	.	4d\	4a/
1C	.	.	.	1e	1g
=21	=21	=21	=21	=21	=21
0FF	1r	0C]	[0A	1f	0f
.	1F	.	.	2r	.
.	.	.	.	[2c\	.
=22	=22	=22	=22	=22	=22
0C	0E	1r	0A]	2c\]	1r
.	.	.	.	2d\	.
.	.	1C	.	1e	1cc
=23	=23	=23	=23	=23	=23
0BB-	0D	0F	1r	1f	[0dd
.	.	.	1B-	2r	.
.	.	.	.	[2F/	.
=24	=24	=24	=24	=24	=24
0r	2r	0D	0A	2F/]	1dd]
.	2.F\	.	.	2G/	.
.	.	.	.	1A	1a
.	4E\	.	.	.	.
.	4D\	.	.	.	.
.	4C/	.	.	.	.
=25	=25	=25	=25	=25	=25
1GG	1D	2r	0G	1B-	1b-
.	.	2D/	.	.	.
1C	1C	1E	.	2r	1cc
.	.	.	.	2G/	.
=26	=26	=26	=26	=26	=26
1.BB-	0r	1.F	2r	2.B-\	2dd\
.	.	.	2.B-\	.	2.d/
.	.	.	.	4c\	.
.	.	.	.	2d\	.
.	.	.	4A/	.	4e/
2D\	.	2D/	4G/	2B-\	[2f/
.	.	.	4F/	.	.
=27	=27	=27	=27	=27	=27
1C	1r	1E	1G	1c	2f/]
.	.	.	.	.	2e/
1FF	1F	[1C	1F	1A	1f
=28	=28	=28	=28	=28	=28
2r	1E	1C]	0r	2G/	0r
2C/	.	.	.	1c	.
2D\	1D	2r	.	.	.
[2F\	.	2F/	.	2Bni\	.
=29	=29	=29	=29	=29	=29
2F\]	1C	2G/	1r	1c	1r
2E\	.	2G/	.	.	.
1F	[1D	[1F	1B-	2r	[1f
.	.	.	.	2F/	.
=30	=30	=30	=30	=30	=30
0r	1D]	1F]	1A	2F/	1f]
.	.	.	.	2F/	.
.	1E	1C	1G	1c	2.g/
.	.	.	.	.	4a/
=31	=31	=31	=31	=31	=31
1r	0D	2r	1F	1r	2b-\
.	.	2F/	.	.	2a/
1BB-	.	1D	[1G	1G	2g/
.	.	.	.	.	2f/
=32	=32	=32	=32	=32	=32
1C	[0C	1.E	1G]	1.c	1e
2AA/	.	.	1A	.	2c/
2FF/	.	2F/	.	2c\	[2f/
=33	=33	=33	=33	=33	=33
0C	0C]	1G	0G	[0c	2f/]
.	.	.	.	.	4e/
.	.	.	.	.	4d/
.	.	1E	.	.	1e
=34	=34	=34	=34	=34	=34
[0FF	0r	[0A	[0F	0c]	0f
=35	=35	=35	=35	=35	=35
0FF]	0r	0A]	0F]	1.F	1r
.	.	.	.	.	[1c
.	.	.	.	2G/	.
=36	=36	=36	=36	=36	=36
0r	0r	1r	0r	2A/	2c/]
.	.	.	.	2B-\	2d/
.	.	2r	.	2c\	2e/
.	.	2F/	.	2d\	2f/
=37	=37	=37	=37	=37	=37
0r	0r	1c	0r	2e\	2g/
.	.	.	.	1f	2.a/
.	.	1c	.	.	.
.	.	.	.	.	4b-\
.	.	.	.	2e\	[2cc\
=38	=38	=38	=38	=38	=38
0r	0r	1d	0r	2.f\	2cc\]
.	.	.	.	.	2b-\
.	.	.	.	4d\	.
.	.	1c	.	2.e\	2a/
.	.	.	.	.	[2g/
.	.	.	.	4c\	.
=39	=39	=39	=39	=39	=39
0r	0r	2.B-\	0r	4d\	2g/]
.	.	.	.	4e\	.
.	.	.	.	1f	2.a/
.	.	4A/	.	.	.
.	.	1B-	.	.	.
.	.	.	.	.	8g/L
.	.	.	.	.	8f/J
.	.	.	.	4e\	2g/
.	.	.	.	4d\	.
=40	=40	=40	=40	=40	=40
1r	0r	2A/	0r	[0c	1a
.	.	4F/	.	.	.
.	.	4G/	.	.	.
1FF	.	4A/	.	.	2r
.	.	4B-\	.	.	.
.	.	[2c\	.	.	[2a/
=41	=41	=41	=41	=41	=41
1C	0r	2c\]	0r	0c]	2a/]
.	.	4B-\	.	.	4g/
.	.	4A/	.	.	4f/
1C	.	4G/	.	.	4e/
.	.	4F/	.	.	4d/
.	.	2G/	.	.	2e/
=42	=42	=42	=42	=42	=42
2.D\	0r	2F/	0r	1r	1f
.	.	1A	.	.	.
4C/	.	.	.	.	.
1D	.	.	.	1F	1f
.	.	4G/	.	.	.
.	.	4F/	.	.	.
=43	=43	=43	=43	=43	=43
0C	1r	2.E/	0r	1c	1g
.	.	4D/	.	.	.
.	1C	1E	.	1c	1a
=44	=44	=44	=44	=44	=44
2.BB-/	0G	0D	0r	2.d\	0b-
4AA/	.	.	.	4c\	.
1GG	.	.	.	2d\	.
.	.	.	.	2B-\	.
=45	=45	=45	=45	=45	=45
1FF	0A	1F	1r	0c	1r
1AA	.	2r	1F	.	[1cc
.	.	2C/	.	.	.
=46	=46	=46	=46	=46	=46
0r	[0G	1C	0c	0r	2cc\]
.	.	.	.	.	4b-\
.	.	.	.	.	4a/
.	.	1C	.	.	2g/
.	.	.	.	.	[2cc\
=47	=47	=47	=47	=47	=47
0GG	0G]	1G	0d	2r	2cc\]
.	.	.	.	1B-	4b-\
.	.	.	.	.	4a/
.	.	1D	.	.	1b-
.	.	.	.	2A/	.
=48	=48	=48	=48	=48	=48
1C	0r	1E	[0c	2.G/	0cc
.	.	.	.	4F/	.
1C	.	1C	.	1G	.
=49	=49	=49	=49	=49	=49
2.FF/	1F	0C	0c]	1F	2r
.	.	.	.	.	2.cc\
4GG/	.	.	.	.	.
4AA/	1E	.	.	1r	.
4BB-/	.	.	.	.	4b-\
[2C/	.	.	.	.	2g/
=50	=50	=50	=50	=50	=50
2C/]	1D	2r	0r	1f	2a/
2BB-/	.	2D/	.	.	2b-\
1C	1C	1E	.	1e	2g/
.	.	.	.	.	2a/
=51	=51	=51	=51	=51	=51
2BB-/	1D	1F	1B-	2d\	1b-
2D\	.	.	.	2B-\	.
[1C	1E	1r	1A	[1c	1r
=52	=52	=52	=52	=52	=52
1C]	1E	2r	1G	1c]	2g/
.	.	2C/	.	.	1cc
1r	1r	2F/	1F	1d	.
.	.	2D/	.	.	2bni\
=53	=53	=53	=53	=53	=53
0r	0r	[0C	1G	1e	0cc
.	.	.	1A	1e	.
=54	=54	=54	=54	=54	=54
2.FF/	1F	0C]	1A	0r	2r
.	.	.	.	.	2.cc\
4GG/	.	.	.	.	.
4AA/	1E	.	1r	.	.
4BB-/	.	.	.	.	4b-\
[2C/	.	.	.	.	2g/
=55	=55	=55	=55	=55	=55
2C/]	1D	2r	0r	1f	2a/
2BB-/	.	2D/	.	.	2b-\
1C	1C	1E	.	1e	2g/
.	.	.	.	.	2a/
=56	=56	=56	=56	=56	=56
2BB-/	1D	1F	1B-	2d\	1b-
2D\	.	.	.	2B-\	.
[1C	1E	1r	1A	[1c	1r
=57	=57	=57	=57	=57	=57
1C]	1E	2r	1G	1c]	2g/
.	.	2C/	.	.	1cc
1r	1r	2F/	1F	1d	.
.	.	2D/	.	.	2bni\
=58	=58	=58	=58	=58	=58
0r	0r	0C	1G	1e	0cc
.	.	.	1A	1e	.
=59	=59	=59	=59	=59	=59
0FF	0F	1r	1A	1r	0r
.	.	1A	1r	1c	.
=60	=60	=60	=60	=60	=60
2.BB-/	1D	1B-	0r	1.d	0r
4C/	.	.	.	.	.
1D	1F	1A	.	.	.
.	.	.	.	2c\	.
=61	=61	=61	=61	=61	=61
[0GG	1.G	[0G	0B-	2B-\	1r
.	.	.	.	2G/	.
.	.	.	.	1d	[1g
.	2F\	.	.	.	.
=62	=62	=62	=62	=62	=62
0GG]	2E\	0G]	1G	1r	2g/]
.	2C/	.	.	.	4f/
.	.	.	.	.	4e/
.	1D	.	1B-	1G	1d
=63	=63	=63	=63	=63	=63
0r	0C	1r	1.c	[1G	2e/
.	.	.	.	.	4c/
.	.	.	.	.	4d/
.	.	1C	.	2G/]	4e/
.	.	.	.	.	4f/
.	.	.	2B-\	2E/	[2g/
=64	=64	=64	=64	=64	=64
0r	0r	1D	2A/	1F	4g/]
.	.	.	.	.	4f/
.	.	.	2F/	.	1f
.	.	1C	1G	1c	.
.	.	.	.	.	2e/
=65	=65	=65	=65	=65	=65
0FF	1r	1r	0F	1r	0f
.	1F	1A	.	1c	.
=66	=66	=66	=66	=66	=66
2.BB-/	1D	1B-	0r	1.d	0r
4C/	.	.	.	.	.
1D	1F	1A	.	.	.
.	.	.	.	2c\	.
=67	=67	=67	=67	=67	=67
[0GG	1.G	[0G	1r	2B-\	1r
.	.	.	.	2G/	.
.	.	.	1B-	1d	[1g
.	2F\	.	.	.	.
=68	=68	=68	=68	=68	=68
0GG]	2E\	0G]	1G	1r	2g/]
.	2C/	.	.	.	4f/
.	.	.	.	.	4e/
.	1D	.	1B-	1G	1d
=69	=69	=69	=69	=69	=69
1r	[0C	1r	1.c	1G	1e
1FF	.	[1C	.	2.A/	[1c
.	.	.	2B-\	.	.
.	.	.	.	4B-\	.
=70	=70	=70	=70	=70	=70
1FF	0C]	2C/]	2A/	0c	2c/]
.	.	2.c\	2F/	.	1f
1C	.	.	1G	.	.
.	.	4B-\	.	.	.
.	.	2G/	.	.	2e/
=71	=71	=71	=71	=71	=71
1FF	1r	2.A/	[0F	1c	0f
.	.	4B-\	.	.	.
2r	1F	2c\	.	1A	.
2FF/	.	2C/	.	.	.
=72	=72	=72	=72	=72	=72
1BB-	1D	2.D/	0F]	2B-\	1r
.	.	.	.	2B-\	.
.	.	4E/	.	.	.
1AA	1C	1F	.	1c	2r
.	.	.	.	.	2f/
=73	=73	=73	=73	=73	=73
0GG	1D	0G	1r	[0B-	1b-
.	1E	.	1B-	.	[1g
=74	=74	=74	=74	=74	=74
0BB-	0D	1r	1G	0B-]	2g/]
.	.	.	.	.	2a/
.	.	1D	1F	.	1b-
=75	=75	=75	=75	=75	=75
1r	[0Cl	1E	1G	1r	2.cc\
.	.	.	.	.	4b-\
1FF	.	1F	1A	[1c	2.a/
.	.	.	.	.	8g/L
.	.	.	.	.	8f/J
=76	=76	=76	=76	=76	=76
1C	0C_	0G	0G	2c\]	2e/
.	.	.	.	2c\	2f/
1C	.	.	.	1c	2f/
.	.	.	.	.	2e/
=77	=77	=77	=77	=77	=77
0FFl	0C]	0Al	0Fl	0cl	0fl
!!LO:LB:i:g=z
=78||	=78||	=78||	=78||	=78||	=78||
*>B	*>B	*>B	*>B	*>B	*>B
*clefF4	*clefF4	*clefGv2	*clefGv2	*clefGv2	*clefG2
*k[b-]	*k[b-]	*k[b-]	*k[b-]	*k[b-]	*k[b-]
*M2/1	*M2/1	*M2/1	*M2/1	*M2/1	*M2/1
*met(C|)	*met(C|)	*met(C|)	*met(C|)	*met(C|)	*met(C|)
!!section: Secunda pars: Resurrexit
!!!OMD: Secunda pars: Resurrexit
0r	0r	0r	0r	0B-	0r
=79	=79	=79	=79	=79	=79
1r	0r	0F	0r	1c	0r
[1BB-	.	.	.	[1d	.
=80	=80	=80	=80	=80	=80
1BB-]	0r	1G	0r	2d\]	0r
.	.	.	.	2c\	.
1C	.	[1A	.	[1c	.
=81	=81	=81	=81	=81	=81
0D	0r	2A/]	0r	2c\]	0r
.	.	2G/	.	4Bni\	.
.	.	.	.	4A/	.
.	.	[1F	.	1Bni	.
=82	=82	=82	=82	=82	=82
0C	0r	2F/]	0r	1c	0c
.	.	4E/	.	.	.
.	.	4D/	.	.	.
.	.	1E	.	1G	.
=83	=83	=83	=83	=83	=83
1r	0r	1.F	0r	1.A	1c
[1FF	.	.	.	.	1c
.	.	2E/	.	2G/	.
=84	=84	=84	=84	=84	=84
1FF]	0r	1D	0r	1A	0d
1GG	.	1G	.	1B-	.
=85	=85	=85	=85	=85	=85
0AA	0F	0C	0r	1c	2c/
.	.	.	.	.	2cc\
.	.	.	.	2r	2cc\
.	.	.	.	2A/	2cc\
=86	=86	=86	=86	=86	=86
1GG	1G	[0D	0r	2.B-\	1b-
.	.	.	.	4c\	.
1D	[1A	.	.	[1d	2a/
.	.	.	.	.	2f/
=87	=87	=87	=87	=87	=87
0GG	2A\]	0D]	0B-	2d\]	0g
.	2G\	.	.	2c\	.
.	[1G	.	.	1d	.
=88	=88	=88	=88	=88	=88
1C	2G\]	1C	1c	1e	1r
.	4F\	.	.	.	.
.	4E\	.	.	.	.
1BB-	1F	1r	[1d	2r	[1b-
.	.	.	.	2d\	.
=89	=89	=89	=89	=89	=89
1GG	[0G	1D	2d\]	1B-	1b-]
.	.	.	2c\	.	.
1C	.	1E	[1c	1G	1cc
=90	=90	=90	=90	=90	=90
0GG	0G_	0D	2c\]	0g	0dd
.	.	.	4Bni\	.	.
.	.	.	4A/	.	.
.	.	.	1Bni	.	.
=91	=91	=91	=91	=91	=91
0C	0G]	0E	[0c	1g	1cc
.	.	.	.	1c	1cc
=92	=92	=92	=92	=92	=92
0r	0r	2r	0c_	2.A/	0f
.	.	1F	.	.	.
.	.	.	.	4B-\	.
.	.	.	.	4c\	.
.	.	.	.	4B-\	.
.	.	4E/	.	4c\	.
.	.	4D/	.	4d\	.
=93	=93	=93	=93	=93	=93
0r	0G	1C	0c]	2e\	0g
.	.	.	.	1f	.
.	.	1C	.	.	.
.	.	.	.	2e\	.
=94	=94	=94	=94	=94	=94
1FF	1C	1.F	0r	2.f\	0f
.	.	.	.	4e\	.
1BB-	1D	.	.	4d\	.
.	.	.	.	4c\	.
.	.	2D/	.	[2f\	.
=95	=95	=95	=95	=95	=95
1C	1C	1E	0c	2f\]	1r
.	.	.	.	2e\	.
1FF	1r	1C	.	2.f\	2r
.	.	.	.	.	[2f/
.	.	.	.	4e\	.
=96	=96	=96	=96	=96	=96
0r	1r	2D/	1F	2d\	2f/]
.	.	2D/	.	2B-\	4e/
.	.	.	.	.	4d/
.	1G	1C	1G	1c	2e/
.	.	.	.	.	2e/
=97	=97	=97	=97	=97	=97
1FF	1C	2r	1F	2r	0f
.	.	1F	.	2A/	.
1BB-	1D	.	1r	2B-\	.
.	.	4E/	.	2B-\	.
.	.	4D/	.	.	.
=98	=98	=98	=98	=98	=98
1C	[0C	2E/	1r	1G	1r
.	.	2E/	.	.	.
2.FF/	.	1F	1c	2.A/	2r
.	.	.	.	.	[2f/
4GG/	.	.	.	4B-\	.
=99	=99	=99	=99	=99	=99
2AA/	0C]	0r	1F	[0c	2f/]
2FF/	.	.	.	.	4e/
.	.	.	.	.	4d/
1C	.	.	1G	.	2e/
.	.	.	.	.	2e/
=100	=100	=100	=100	=100	=100
0FF	0r	1C	[0F	0c]	1f
.	.	[1F	.	.	2r
.	.	.	.	.	2f/
=101	=101	=101	=101	=101	=101
0r	0r	2F/]	0F]	0r	2.d/
.	.	4E/	.	.	.
.	.	4D/	.	.	4e/
.	.	2D/	.	.	2f/
.	.	2A/	.	.	2f/
=102	=102	=102	=102	=102	=102
0r	0r	2B-\	0r	1r	2.g/
.	.	1c	.	.	.
.	.	.	.	.	4f/
.	.	.	.	2r	4e/
.	.	.	.	.	4d/
.	.	2G/	.	2B-\	[2g/
=103	=103	=103	=103	=103	=103
0r	0r	2.E/	0r	2.G/	2g/]
.	.	.	.	.	4f/
.	.	4F/	.	4A/	4e/
.	.	1G	.	2B-\	4d/
.	.	.	.	.	4c/
.	.	.	.	2B-\	2d/
=104	=104	=104	=104	=104	=104
0r	0r	2C/	0r	2.c\	2e/
.	.	1F	.	.	2.c/
.	.	.	.	4B-\	.
.	.	.	.	4A/	.
.	.	.	.	4G/	4d/
.	.	4E/	.	[2c\	4e/
.	.	4D/	.	.	4f/
=105	=105	=105	=105	=105	=105
0r	0r	0C	0r	2c\]	4g/
.	.	.	.	.	4f/
.	.	.	.	4B-\	1f
.	.	.	.	4A/	.
.	.	.	.	4G/	.
.	.	.	.	4F/	.
.	.	.	.	2G/	2e/
=106	=106	=106	=106	=106	=106
2r	1r	0r	0r	0F	[0f
2.F\	.	.	.	.	.
.	2r	.	.	.	.
4E\	.	.	.	.	.
[2D\	2F\	.	.	.	.
=107	=107	=107	=107	=107	=107
2D\]	2.D\	0r	0r	0r	0f]
4C/	.	.	.	.	.
4BB-/	4E\	.	.	.	.
4AA/	2F\	.	.	.	.
4GG/	.	.	.	.	.
2AA/	2F\	.	.	.	.
=108	=108	=108	=108	=108	=108
2GG/	2.G\	0r	1r	0r	0r
1C	.	.	.	.	.
.	4G\	.	.	.	.
.	4F\	.	2r	.	.
.	4E\	.	.	.	.
2BB-/	[2G\	.	2B-\	.	.
=109	=109	=109	=109	=109	=109
1C	2G\]	0r	2.G/	0r	0r
.	4F\	.	.	.	.
.	4E\	.	4A/	.	.
2r	4D\	.	2B-\	.	.
.	4C/	.	.	.	.
2GG/	2D\	.	2B-\	.	.
=110	=110	=110	=110	=110	=110
4AA/	[0C	0r	2.c\	0r	0r
4BB-/	.	.	.	.	.
4C/	.	.	.	.	.
4D\	.	.	4B-\	.	.
4E\	.	.	4A/	.	.
4F\	.	.	4G/	.	.
[2G\	.	.	[2c\	.	.
=111	=111	=111	=111	=111	=111
4G\]	0C]	0r	2c\]	[0c	0r
4F\	.	.	.	.	.
1F	.	.	4B-\	.	.
.	.	.	4A/	.	.
.	.	.	4G/	.	.
.	.	.	4F/	.	.
2E\	.	.	2G/	.	.
=112	=112	=112	=112	=112	=112
0F	0r	1.A	[0F	0c]	1.f
.	.	2B-\	.	.	2g/
=113	=113	=113	=113	=113	=113
1r	0r	1c	0F]	0F	1a
[1BB-	.	[1d	.	.	[1b-
=114	=114	=114	=114	=114	=114
1BB-]	0r	1d]	0r	1G	1b-]
1C	.	1c	.	[1A	2.a/
.	.	.	.	.	4g/
=115	=115	=115	=115	=115	=115
1.D	0r	1.F	0r	1A]	1f
.	.	.	.	2.B-\	2r
2C/	.	2E/	.	.	2f/
.	.	.	.	4A/	.
=116	=116	=116	=116	=116	=116
2BB-/	0r	2D/	0r	2G/	2g/
2AA/	.	1C	.	1F	2a/
1GG	.	.	.	.	2b-\
.	.	2BB-/	.	2E/	2b-\
=117	=117	=117	=117	=117	=117
0FF	0r	0C	0r	2F/	2.a/
.	.	.	.	2F/	.
.	.	.	.	.	4g/
.	.	.	.	1A	1f
=118	=118	=118	=118	=118	=118
1.C	0G	0c	0r	1G	1.e
.	.	.	.	[1c	.
2BB-/	.	.	.	.	4d/
.	.	.	.	.	4e/
=119	=119	=119	=119	=119	=119
1AA	1C	1F	0r	2c\]	1f
.	.	.	.	4B-\	.
.	.	.	.	4A/	.
1GG	1D	[1G	.	1B-	1d
=120	=120	=120	=120	=120	=120
1C	1E	1G]	0c	1r	1c
1FF	[1F	1A	.	1c	[1cc
=121	=121	=121	=121	=121	=121
0BB-	2F\]	1B-	1F	1.d	2cc\]
.	2E\	.	.	.	4b-\
.	.	.	.	.	4a/
.	1D	1G	1G	.	1b-
.	.	.	.	2e\	.
=122	=122	=122	=122	=122	=122
1FF	1C	1F	1A	1f	2.a/
.	.	.	.	.	4f/
1r	1r	2D/	[1B-	2f\	2f/
.	.	[2E-/	.	[2e-\	[2g/
=123	=123	=123	=123	=123	=123
1r	1r	2E-/]	2B-\]	2e-\]	4g/]
.	.	.	.	.	4f/
.	.	2F/	2A/	2d\	1f
1C	2r	1C	1G	2.c\	.
.	2C/	.	.	.	2e/
.	.	.	.	4B-\	.
=124	=124	=124	=124	=124	=124
1FF	2.C/	1r	1F	4A/	1f
.	.	.	.	4G/	.
.	.	.	.	2A/	.
.	4D\	.	.	.	.
2GG/	2E\	2r	1r	2G/	1r
2AA/	2F\	2C/	.	2c\	.
=125	=125	=125	=125	=125	=125
2BB-/	2.G\	2D/	1r	2r	1r
1C	.	1E	.	2.c\	.
.	8F\L	.	.	.	.
.	8G\J	.	.	.	.
.	2.A\	.	2r	.	2r
.	.	.	.	4A/	.
2AA/	.	2F/	2F/	2c\	2cc\
.	4G\	.	.	.	.
=126	=126	=126	=126	=126	=126
1BB-	2F\	1D	2.F/	2B-\	2dd\
.	2D\	.	.	2B-\	2dd\
.	.	.	4G/	.	.
[1AA	[1E	1r	2A/	1c	[1cc
.	.	.	2B-\	.	.
=127	=127	=127	=127	=127	=127
1AA]	1E]	2r	2.c\	1A	2cc\]
.	.	2C/	.	.	4b-\
.	.	.	8B-\L	.	4a/
.	.	.	8c\J	.	.
1r	1r	2G/	2.d\	2r	1b-
.	.	2G/	.	[2G/	.
.	.	.	4c\	.	.
=128	=128	=128	=128	=128	=128
1GG	1G	0D	2B-\	2G/]	2r
.	.	.	2G/	1d	2b-\
1D	1F	.	[1A	.	2.a/
.	.	.	.	[2A/	.
.	.	.	.	.	4b-\
=129	=129	=129	=129	=129	=129
1C	2E\	1E	1A]	4A/]	2cc\
.	.	.	.	4G/	.
.	2C/	.	.	2A/	2a/
2BB-/	1D	2F/	1r	2d\	2b-\
2GG/	.	2G/	.	2G/	2b-\
=130	=130	=130	=130	=130	=130
1AA	1C	2E/	1c	1c	2cc\
.	.	2F/	.	.	2a/
1r	1r	1G	1B-	2r	2b-\
.	.	.	.	2G/	[2g/
=131	=131	=131	=131	=131	=131
1r	1r	0C	2A/	2A/	4g/]
.	.	.	.	.	4f/
.	.	.	2F/	2B-\	1f
1C	2r	.	1G	2.c\	.
.	2C/	.	.	.	2e/
.	.	.	.	4B-\	.
=132	=132	=132	=132	=132	=132
1FF	2.C/	1r	1F	4A/	1f
.	.	.	.	4G/	.
.	.	.	.	2A/	.
.	4D\	.	.	.	.
2GG/	2E\	2r	1r	2G/	1r
2AA/	2F\	2C/	.	2c\	.
=133	=133	=133	=133	=133	=133
2BB-/	2.G\	2D/	1r	2r	1r
1C	.	1E	.	2.c\	.
.	8F\L	.	.	.	.
.	8G\J	.	.	.	.
.	2.A\	.	2r	.	2r
.	.	.	.	4A/	.
2AA/	.	2F/	2F/	2c\	2cc\
.	4G\	.	.	.	.
=134	=134	=134	=134	=134	=134
1BB-	2F\	1D	2.F/	2B-\	2dd\
.	2D\	.	.	2B-\	2dd\
.	.	.	4G/	.	.
[1AA	[1E	1r	2A/	1c	[1cc
.	.	.	2B-\	.	.
=135	=135	=135	=135	=135	=135
1AA]	1E]	2r	2.c\	1A	2cc\]
.	.	2C/	.	.	4b-\
.	.	.	8B-\L	.	4a/
.	.	.	8c\J	.	.
1r	1r	2G/	2.d\	2r	1b-
.	.	2G/	.	[2G/	.
.	.	.	4c\	.	.
=136	=136	=136	=136	=136	=136
1GG	1G	0D	2B-\	2G/]	2r
.	.	.	2G/	1d	2b-\
1D	1F	.	[1A	.	2.a/
.	.	.	.	[2A/	.
.	.	.	.	.	4b-\
=137	=137	=137	=137	=137	=137
1C	2E\	1E	1A]	4A/]	2cc\
.	.	.	.	4G/	.
.	2C/	.	.	2A/	2a/
2BB-/	1D	2F/	1r	2d\	2b-\
2GG/	.	2G/	.	2G/	2b-\
=138	=138	=138	=138	=138	=138
1AA	1C	2E/	1c	1c	2cc\
.	.	2F/	.	.	2a/
2r	2r	1G	1B-	[1d	2b-\
2GG/	2D\	.	.	.	2g/
=139	=139	=139	=139	=139	=139
2D\	1F	2F/	2A/	1d]	2a/
2D\	.	2D/	2F/	.	2b-\
1C	1E	4E/	1G	1r	1cc
.	.	4F/	.	.	.
.	.	4G/	.	.	.
.	.	4A/	.	.	.
=140	=140	=140	=140	=140	=140
2r	0D	1B-	1F	1.d	2r
1BB-	.	.	.	.	1dd
.	.	2B-\	2r	.	.
2BB-/	.	2B-\	2G/	2d\	2dd\
=141	=141	=141	=141	=141	=141
1BB-	2r	1F	1B-	1B-	1dd
.	2D\	.	.	.	.
1FF	1F	1c	1A	[1c	[1cc
=142	=142	=142	=142	=142	=142
1C	1E	1.G	0G	1c]	2cc\]
.	.	.	.	.	4b-\
.	.	.	.	.	4a/
[1GG	[1D	.	.	[1d	[1b-
.	.	2A/	.	.	.
=143	=143	=143	=143	=143	=143
1GG]	1D]	1B-	2r	1d]	1b-]
.	.	.	2G/	.	.
2r	2r	1r	1B-	1B-	1g
2GG/	2D\	.	.	.	.
=144	=144	=144	=144	=144	=144
0C	0E	1r	1A	0c	1e
.	.	[1G	[1G	.	1c
=145	=145	=145	=145	=145	=145
0BB-	0D	2G/]	1G]	1r	0d
.	.	2A/	.	.	.
.	.	1B-	2r	1G	.
.	.	.	2G/	.	.
=146	=146	=146	=146	=146	=146
1.AA	[0E	2c\	0A	1.c	1.c
.	.	2A/	.	.	.
.	.	[1c	.	.	.
2BB-/	.	.	.	2c\	2d/
=147	=147	=147	=147	=147	=147
0C	1E]	2c\]	0G	[0cl	2e/
.	.	4B-\	.	.	1f
.	.	4A/	.	.	.
.	1C	1G	.	.	.
.	.	.	.	.	2e/
=148	=148	=148	=148	=148	=148
[0FFl	[0Cl	1F	[0A	0c_	[0fl
.	.	2r	.	.	.
.	.	2C/	.	.	.
=149	=149	=149	=149	=149	=149
0FF_	0C_	2.F/	1A]	0c_	0f_
.	.	4E/	.	.	.
.	.	2F/	1F	.	.
.	.	2G/	.	.	.
=150	=150	=150	=150	=150	=150
0FF]	0C]	0Al	0Fl	0c]	0f]
==	==	==	==	==	==
*-	*-	*-	*-	*-	*-
!!!RDF**kern: l=long note in original notation
!!!RDF**kern: i=editorial accidental
!!!RDF**kern: V=start of tuplet marker
!!!RDF**kern: Z=end of tuplet marker
!!!ENC:	Chris Gage 06-08-2012
!!!END:	2012/06/29/
!!!EED:	Jesse Rodin
!!!EEV:	2012/07/26/
!!attribution-level@Jos: 4 (questionable)
!!!ONB:	Translated from MusicXML and edited on 2012/07/26/ by Craig Sapp
!!muse2ps: C^@{COA}?\n@{SCT}^i2I150v85,85,85,85,85,130Q16
